src/assets/tokens/btc.svg

<svg width="42" height="42" viewBox="0 0 42 42" fill="none" xmlns="http://www.w3.org/2000/svg">
<path d="M20.9999 42C32.598 42 42 32.598 42 21C42 9.40203 32.598 0 20.9999 0C9.40202 0 0 9.40203 0 21C0 32.598 9.40202 42 20.9999 42Z" fill="#050C28"/>
<path fill-rule="evenodd" clip-rule="evenodd" d="M21 40.7778C31.923 40.7778 40.7778 31.923 40.7778 21C40.7778 10.077 31.923 1.22222 21 1.22222C10.077 1.22222 1.22222 10.077 1.22222 21C1.22222 31.923 10.077 40.7778 21 40.7778ZM21 41C32.0457 41 41 32.0457 41 21C41 9.95431 32.0457 1 21 1C9.95431 1 1 9.95431 1 21C1 32.0457 9.95431 41 21 41Z" fill="white"/>
<path fill-rule="evenodd" clip-rule="evenodd" d="M21.0001 39.2223C31.064 39.2223 39.2223 31.064 39.2223 21.0001C39.2223 10.9363 31.064 2.77789 21.0001 2.77789C10.9363 2.77789 2.77789 10.9363 2.77789 21.0001C2.77789 31.064 10.9363 39.2223 21.0001 39.2223ZM21.0001 39.4446C31.1867 39.4446 39.4446 31.1867 39.4446 21.0001C39.4446 10.8135 31.1867 2.55566 21.0001 2.55566C10.8135 2.55566 2.55566 10.8135 2.55566 21.0001C2.55566 31.1867 10.8135 39.4446 21.0001 39.4446Z" fill="white"/>
<path d="M29.5755 18.4408C30.0005 15.8414 27.9585 14.3846 25.1576 13.3751L26.0996 9.86372L23.8792 9.26926L22.9614 12.6883C22.3784 12.5322 21.7791 12.3827 21.1834 12.2361L22.1046 8.79438L19.8864 8.19998L18.947 11.7101L14.4696 10.5175L13.8583 12.8008C13.8583 12.8008 15.5057 13.21 15.4706 13.2318C16.3696 13.4731 16.5281 14.054 16.4967 14.5107L13.9187 24.1303C13.8062 24.3922 13.5235 24.7818 12.8951 24.6136C12.9172 24.6455 11.2816 24.179 11.2816 24.179L10.1564 26.6172L14.6271 27.8289L13.6762 31.3812L15.8934 31.9756L16.8355 28.4615C17.4423 28.6366 18.0289 28.7991 18.6038 28.9527L17.6655 32.4504L19.8856 33.0449L20.8365 29.4994C24.624 30.2929 27.4789 30.0875 28.706 26.8019C29.6959 24.155 28.6941 22.5868 26.7067 21.5288C28.1629 21.2413 29.2654 20.3454 29.5736 18.4421L29.5755 18.4408ZM24.4332 25.2035C23.7214 27.8578 19.0843 26.292 17.5788 25.8896L18.8404 21.1841C20.3451 21.5875 25.1739 22.4351 24.434 25.2031L24.4332 25.2035ZM25.1818 18.2879C24.534 20.7036 20.6733 19.3666 19.4194 19.0305L20.5617 14.7614C21.816 15.0979 25.8555 15.769 25.1802 18.2877" fill="white"/>
</svg>

<?xml version="1.0" encoding="utf-8"?>
<!-- Generator: Adobe Illustrator 24.0.1, SVG Export Plug-In . SVG Version: 6.00 Build 0)  -->
<svg version="1.1" id="Layer_1" xmlns="http://www.w3.org/2000/svg" xmlns:xlink="http://www.w3.org/1999/xlink" x="0px" y="0px"
	 viewBox="0 0 42 42" style="enable-background:new 0 0 42 42;" xml:space="preserve">
<style type="text/css">
	.st0{fill:#01041C;}
	.st1{fill:#FFFFFF;}
</style>
<path class="st0" d="M21,42c11.6,0,21-9.4,21-21C42,9.4,32.6,0,21,0C9.4,0,0,9.4,0,21C0,32.6,9.4,42,21,42z"/>
<path class="st1" d="M29.6,18.4c0.4-2.6-1.6-4.1-4.4-5.1l0.9-3.5l-2.2-0.6L23,12.7c-0.6-0.2-1.2-0.3-1.8-0.5l0.9-3.4l-2.2-0.6
	l-0.9,3.5l-4.5-1.2l-0.6,2.3c0,0,1.6,0.4,1.6,0.4c0.9,0.2,1.1,0.8,1,1.3l-2.6,9.6c-0.1,0.3-0.4,0.7-1,0.5c0,0-1.6-0.4-1.6-0.4
	l-1.1,2.4l4.5,1.2l-1,3.6l2.2,0.6l0.9-3.5c0.6,0.2,1.2,0.3,1.8,0.5l-0.9,3.5l2.2,0.6l1-3.5c3.8,0.8,6.6,0.6,7.9-2.7
	c1-2.6,0-4.2-2-5.3C28.2,21.2,29.3,20.3,29.6,18.4L29.6,18.4z M24.4,25.2c-0.7,2.7-5.3,1.1-6.9,0.7l1.3-4.7
	C20.3,21.6,25.2,22.4,24.4,25.2L24.4,25.2z M25.2,18.3c-0.6,2.4-4.5,1.1-5.8,0.7l1.1-4.3C21.8,15.1,25.9,15.8,25.2,18.3"/>
</svg>
